img/help2.svg

<svg width="140" height="140" viewBox="0 0 140 140" fill="none" xmlns="http://www.w3.org/2000/svg">
<path d="M22.8818 86.7787H22.8834L22.8818 86.7722H41.3913L41.393 86.7787H48.271V46.4839H22.8818C11.7548 46.4839 2.73438 55.5043 2.73438 66.6313C2.73438 77.7586 11.7548 86.7787 22.8818 86.7787Z" fill="#FF9A02"/>
<path d="M48.2707 86.7958C48.2707 86.7958 88.5325 84.5115 107.475 117.099C108.492 118.85 111.17 118.128 111.17 116.103V78.1667V55.0957V17.1592C111.17 15.1344 108.492 14.4123 107.475 16.1628C88.5325 48.7508 48.2707 46.4663 48.2707 46.4663V46.4835V86.7783V86.7958Z" fill="white"/>
<path d="M112.258 78.1667C118.352 78.1667 123.291 73.2271 123.291 67.1338V66.1286C123.291 60.0354 118.352 55.0957 112.258 55.0957H111.17V78.1667H112.258Z" fill="#FF9A02"/>
<path d="M22.8818 86.7725L22.8834 86.779L30.9408 119.912C31.6425 122.798 34.227 124.829 37.1968 124.829H42.4545C46.626 124.829 49.6962 120.923 48.7104 116.869L41.393 86.7793L41.3913 86.7727L22.8818 86.7725Z" fill="#FF9A02"/>
<path d="M48.4258 43.7367C48.282 43.7285 48.1389 43.7353 47.9973 43.7496H22.8818C10.2648 43.7496 0 54.0144 0 66.6314C0 78.5152 9.10738 88.3087 20.7085 89.4071L28.2838 120.558C29.2868 124.682 32.952 127.563 37.1968 127.563H42.4545C45.287 127.563 47.9155 126.286 49.6661 124.058C51.4166 121.831 52.0365 118.975 51.3674 116.223L44.8719 89.5129H47.9927C48.1348 89.5274 48.2784 89.5342 48.4233 89.526C48.5207 89.5206 58.322 89.0305 70.1999 92.4078C85.9075 96.8738 97.6533 105.644 105.111 118.473C105.978 119.966 107.512 120.826 109.157 120.826C109.572 120.826 109.995 120.771 110.416 120.657C112.503 120.095 113.905 118.265 113.905 116.103V80.7993C120.723 79.9828 126.026 74.1679 126.026 67.1339V66.1288C126.026 59.0949 120.723 53.28 113.905 52.4632V17.1597C113.905 14.9982 112.503 13.1678 110.416 12.6053C108.329 12.0434 106.197 12.9206 105.111 14.789C97.6536 27.6192 85.9078 36.3889 70.1999 40.855C58.322 44.2319 48.5204 43.7425 48.4258 43.7367ZM45.3663 120.679C44.6597 121.579 43.5982 122.094 42.4545 122.094H37.1968C35.4826 122.094 34.0028 120.931 33.5978 119.266L26.3624 89.5132H39.2438L41.175 97.4552H39.868C38.3578 97.4552 37.1336 98.6793 37.1336 100.19C37.1336 101.7 38.3578 102.924 39.868 102.924H42.5048L43.8594 108.494H43.0024C41.4922 108.494 40.268 109.718 40.268 111.228C40.268 112.738 41.4922 113.963 43.0024 113.963H45.1894L46.0532 117.515C46.3236 118.627 46.0734 119.78 45.3663 120.679ZM41.5417 84.0444C41.4917 84.0417 41.4419 84.0381 41.3911 84.0381H22.8818C22.8558 84.0381 22.8301 84.042 22.8041 84.0425C13.2385 84.0001 5.46875 76.2069 5.46875 66.6314C5.46875 57.0299 13.2803 49.2183 22.8818 49.2183H45.5364V72.4408H28.5433C27.0331 72.4408 25.8089 73.665 25.8089 75.1752C25.8089 76.6854 27.0331 77.9096 28.5433 77.9096H45.5364V84.0444H41.5417ZM120.557 66.1288V67.1339C120.557 71.1464 117.695 74.5028 113.904 75.2684V57.9943C117.695 58.7599 120.557 62.1164 120.557 66.1288ZM51.0051 49.2298C54.9798 49.165 62.6415 48.6657 71.5107 46.1673C87.5303 41.6545 100.241 32.5747 108.436 19.8309V55.0959V78.1669V113.432C100.241 100.688 87.5306 91.608 71.5107 87.0954C62.6407 84.5968 54.9793 84.0977 51.0051 84.0329V75.1752V49.2298Z" fill="black"/>
<path d="M136.572 42.7828C137.688 41.7659 137.769 40.0367 136.752 38.92C135.735 37.8035 134.006 37.7229 132.889 38.7395L125.003 45.9219C123.886 46.9388 123.805 48.668 124.822 49.7848C125.362 50.3773 126.102 50.6781 126.845 50.6781C127.502 50.6781 128.161 50.4427 128.685 49.9655L136.572 42.7828Z" fill="black"/>
<path d="M134.73 95.2359C135.472 95.2359 136.213 94.9352 136.752 94.3426C137.769 93.2262 137.688 91.4967 136.572 90.4798L128.685 83.2974C127.568 82.2807 125.839 82.3614 124.822 83.4779C123.805 84.5943 123.886 86.3238 125.003 87.3407L132.889 94.5231C133.414 95.0005 134.073 95.2359 134.73 95.2359Z" fill="black"/>
<path d="M137.266 63.897H131.21C129.7 63.897 128.475 65.1212 128.475 66.6313C128.475 68.1415 129.7 69.3657 131.21 69.3657H137.266C138.776 69.3657 140 68.1415 140 66.6313C140 65.1212 138.776 63.897 137.266 63.897Z" fill="black"/>
<path d="M19.8023 74.1299C19.734 73.9631 19.6492 73.8045 19.5508 73.6568C19.4496 73.5064 19.3375 73.367 19.2117 73.2412C19.0832 73.1154 18.9438 73.0006 18.7934 72.9022C18.6457 72.8037 18.4871 72.7189 18.323 72.6506C18.1563 72.5822 17.984 72.5303 17.8117 72.4947C17.459 72.4236 17.0953 72.4236 16.7426 72.4947C16.5676 72.5303 16.3953 72.5822 16.2313 72.6506C16.0672 72.7189 15.9059 72.8037 15.7582 72.9022C15.6078 73.0006 15.4684 73.1154 15.3426 73.2412C15.2168 73.367 15.102 73.5064 15.0035 73.6568C14.9051 73.8045 14.8203 73.9631 14.752 74.1299C14.6836 74.2939 14.6316 74.4662 14.5961 74.6412C14.5605 74.8162 14.5414 74.9967 14.5414 75.1744C14.5414 75.3522 14.5605 75.5326 14.5961 75.7104C14.6316 75.8826 14.6836 76.0549 14.752 76.2217C14.8203 76.3857 14.9051 76.5443 15.0035 76.692C15.102 76.8424 15.2168 76.9818 15.3426 77.1076C15.4684 77.2334 15.6078 77.3482 15.7582 77.4494C15.9059 77.5478 16.0672 77.6326 16.2313 77.701C16.3953 77.7693 16.5676 77.8213 16.7426 77.8568C16.9203 77.8924 17.098 77.9088 17.2758 77.9088C17.4563 77.9088 17.634 77.8924 17.8117 77.8568C17.9867 77.8213 18.1563 77.7693 18.323 77.701C18.4871 77.6326 18.6457 77.5478 18.7934 77.4494C18.9438 77.3482 19.0832 77.2334 19.2117 77.1076C19.3375 76.9818 19.4496 76.8424 19.5508 76.692C19.6492 76.5443 19.734 76.3857 19.8023 76.2217C19.8707 76.0549 19.9227 75.8826 19.9582 75.7104C19.9937 75.5326 20.0102 75.3522 20.0102 75.1744C20.0102 74.9967 19.9937 74.8162 19.9582 74.6412C19.9227 74.4662 19.8707 74.2939 19.8023 74.1299Z" fill="black"/>
</svg>

<svg width="140" height="140" fill="none" xmlns="http://www.w3.org/2000/svg"><path d="M22.882 86.779h.001l-.001-.007h18.51l.001.007h6.878V46.484h-25.39c-11.126 0-20.147 9.02-20.147 20.147 0 11.128 9.02 20.148 20.148 20.148z" fill="#FF9A02"/><path d="M48.27 86.796s40.262-2.285 59.205 30.303c1.017 1.751 3.695 1.029 3.695-.996V17.159c0-2.025-2.678-2.747-3.695-.996C88.533 48.75 48.271 46.466 48.271 46.466v40.33z" fill="#fff"/><path d="M112.258 78.167c6.094 0 11.033-4.94 11.033-11.033v-1.005c0-6.094-4.939-11.033-11.033-11.033h-1.088v23.07h1.088zm-89.376 8.605l.001.007 8.058 33.133a6.438 6.438 0 006.256 4.917h5.258c4.171 0 7.241-3.906 6.255-7.96l-7.317-30.09-.002-.006h-18.51z" fill="#FF9A02"/><path d="M48.426 43.737a2.72 2.72 0 00-.429.013H22.882C10.265 43.75 0 54.014 0 66.63c0 11.885 9.107 21.68 20.709 22.777l7.575 31.151a9.15 9.15 0 008.913 7.005h5.258a9.117 9.117 0 007.211-3.505 9.119 9.119 0 001.701-7.835l-6.495-26.71h3.12c.143.014.286.021.431.013.098-.005 9.899-.495 21.777 2.882 15.707 4.466 27.453 13.236 34.911 26.065.867 1.493 2.401 2.353 4.046 2.353.415 0 .838-.055 1.259-.169a4.665 4.665 0 003.489-4.554V80.799c6.818-.816 12.121-6.631 12.121-13.665v-1.005c0-7.034-5.303-12.849-12.121-13.666V17.16a4.666 4.666 0 00-3.489-4.555 4.667 4.667 0 00-5.305 2.184c-7.457 12.83-19.203 21.6-34.911 26.066-11.878 3.377-21.68 2.888-21.774 2.882zm-3.06 76.942a3.68 3.68 0 01-2.911 1.415h-5.258a3.694 3.694 0 01-3.6-2.828l-7.235-29.753h12.882l1.931 7.942h-1.307a2.734 2.734 0 100 5.469h2.637l1.354 5.57h-.857a2.734 2.734 0 100 5.469h2.187l.864 3.552a3.68 3.68 0 01-.687 3.164zm-3.824-36.635c-.05-.002-.1-.006-.15-.006h-18.51c-.026 0-.052.004-.078.005C13.24 84 5.47 76.207 5.47 66.63c0-9.601 7.811-17.413 17.413-17.413h22.654V72.44H28.543a2.734 2.734 0 100 5.469h16.993v6.134h-3.994zm79.015-17.915v1.005c0 4.012-2.862 7.369-6.653 8.134V57.994c3.791.766 6.653 4.122 6.653 8.135zm-69.552-16.9c3.975-.064 11.636-.563 20.506-3.062 16.02-4.513 28.73-13.592 36.925-26.336v93.601c-8.195-12.744-20.905-21.824-36.925-26.337-8.87-2.498-16.532-2.997-20.506-3.062V49.23zm85.567-6.446a2.735 2.735 0 00-3.683-4.044l-7.886 7.183a2.734 2.734 0 103.682 4.044l7.887-7.183zm-1.842 52.453a2.735 2.735 0 001.842-4.756l-7.887-7.183a2.735 2.735 0 00-3.682 4.044l7.886 7.182a2.727 2.727 0 001.841.713zm2.536-31.339h-6.056a2.735 2.735 0 100 5.469h6.056a2.734 2.734 0 000-5.469z" fill="#000"/><path d="M19.802 74.13a2.699 2.699 0 00-1.009-1.228 2.767 2.767 0 00-.981-.407 2.706 2.706 0 00-1.58.156 2.792 2.792 0 00-.89.59 2.699 2.699 0 00-.59.889 2.753 2.753 0 00-.21 1.044 2.739 2.739 0 00.462 1.518c.098.15.213.29.339.416a2.8 2.8 0 00.415.341 2.806 2.806 0 00.985.408 2.713 2.713 0 002.05-.407c.15-.102.29-.217.419-.342a2.777 2.777 0 00.746-1.398 2.742 2.742 0 00-.156-1.58z" fill="#000"/></svg>
